X:1
T:Magnificat octavi toni - Marenzio
T:#
%%score [ 1 2 3 4 ]
L:1/8
Q:1/4=130
M:4/1
K:Bb
V:1 treble nm="S" snm="S"
V:2 treble nm="A" snm="A"
V:3 treble-8 nm="T" snm="T"
V:4 bass nm="B" snm="B"
V:1
 x14 ||[Q:1/4=200] z16 | z4 B4 B4 B4 | A8 B8- | B4 (G6 F2 F4- | F4 =E2 D2 E4) E4 | %6
w: ||A- ni- ma|me- a|* Do\- * *|* * * * mi-|
[Q:1/4=200][Q:1/4=200][Q:1/4=200][Q:1/4=200] F8 c8 | c4 c4 d8 | B4 B6 B2 B4 | c8 d4 B4 | %10
w: num: Et|ex- ul- ta-|vit spi- ri- tus|me- us in|
 B8 A4 B4- | B2 B2 B8 A4 | G8 A4 A4 | A4 B4 c8 | d4 B4 B4 B4 | B8 _A4 A4 | G4 F4 G8 | G4 c8 c4 | %18
w: De- o sa\-|* lu- ta- ri|me- o. Qui-|a re- spe-|xit hu- mi- li-|ta- tem an-|cil- lae su-|ae: ec- ce|
 B8 A4 A4 | d4 d4 c8 | F8 z4 c4- | c4 (B6 AG A4 | B8) A8 | B12 B4 | B8 B8 | B8 c4 (c4- | %26
w: e- nim ex|hoc be- a-|tam me|* di\- * * *|* cent|o- mnes|ge- ne-|ra- ti- o\-|
 c4 =B2 A2 B8) | c16 || c12 c4 | d6 d2 B4 B4 | A8 G8 | z8 z4 B4 | A4 c4 d4 B4 | B6 B2 c4 d2 (B2- | %34
w: |nes.|Qui- a|fe- cit mi- hi|ma- gna,|qui|po- tens est: et|san- ctum no- men e\-|
 B2 AG A4) B8 || B12 B4 | B6 B2 B4 c4 | d8 e8 | d4 d8 c4 | d6 d2 f8 | z4 d8 c4 | d6 d2 f4 F2 F2 | %42
w: * * * * ius.|Et mi-|se- ri- cor- di-|a e-|ius a pro-|ge- ni- e|in pro-|ge- ni- es, in pro-|
 F6 G2 A4 c4 | c6 B2 c4 =B4 | c4 G4 B6 c2 | B4 B4 A8 || A8 B4 c4- | c4 (B6 AG A2) A2 | B8 z4 c4 | %49
w: ge- ni- es ti-|men- ti- bus e-|um, ti- men- ti-|bus e- um.|Fe- cit po\-|* ten\- * * * ti-|am in|
 d6 d2 d4 c4 | B8 z4 d4 | (B2 c2 d2 B2 c4) d2 c2 | B8 A4 A4- | A2 A2 B6 G2 (c4- | c2 =BA B4) c8 || %55
w: bra- chi- o su-|o: di-|sper\- * * * * sit su-|per- bos men\-|* te cor- dis su\-|* * * * i.|
 G8 A6 A2 | A4 B4 c8 | d4 B4 B8 | (B6 A2 G8) | z4 d4 d6 c2 | B4 B4 G8 | F8 F8 || z4 B4 B4 c4 | %63
w: De- po- su-|it po- ten-|tes de se-|de, * *|et ex- al-|ta- vit hu-|mi- les.|E- su- ri-|
 c8 c4 A4 | B4 c8 =B4 | c4 c4 c6 c2 | c4 c4 d8 | B4 c8 (d4- | d2 c2 B6 AG A4) | B8 z4 B4 | %70
w: en- tes im-|ple- vit bo-|nis: et di- vi-|tes di- mi-|sit i- na\-||nes. Su-|
 A4 B2 B2 A4 B4 | B12 B4 | B8 A6 A2 | A4 B8 c4 | d6 d2 d8 | B4 B4 c6 c2 | c4 B4 _A8 | G16 | G8 c8 | %79
w: sce- pit, su- sce- pit|Is- ra-|el pu- e-|rum su- um,|re- cor- da-|tus mi- se- ri-|cor- di- ae|su-|ae. Si-|
 c8 c8 | d4 B4 B4 c4 | d4 B4 B4 A4 | G8 A8 | B12 B4 | B8 A8 | A6 A2 A4 B4- | B4 G8 A4- | %87
w: cut, si-|cut lo- cu- tus|est ad pa- tres|no- stros,|A- bra-|ham, et|se- mi- ni e\-|* ius in|
 A4 (B6 A2 A2 GF | G6) G2 !fermata!A16 ||[M:3/1][Q:1/4=400] B12 B4 B8 | B16 B8 | %91
w: * sae\- * * * *|* cu- la.|Glo- ri- a|Pa- tri,|
[M:3/1][Q:1/4=400][Q:1/4=400][Q:1/4=400][Q:1/4=400] d8 d8 c8 | d16 z8 | d12 d4 d8 | c8 c8 =B8 | %95
w: et Fi- li-|o,|et Spi- ri-|tu- i san-|
 c24 | z24 ||[Q:1/4=200] z8 B8- |[Q:1/4=200][Q:1/4=200][Q:1/4=200][Q:1/4=200] B4 B4 A8 | G8 B8- | %100
w: cto.||Si\-|* cut e-|rat in|
 B4 B4 B8- | B8 B8 | B12 F4 | G4 G4 F8 | G4 B4 B8 | B4 B8 A4 | B12 c4 | B4 B8 c4 | c8 c4 A4- | %109
w: * prin- ci\-|* pi-|o, et|nunc, et sem-|per, et sem-|per, et in|sae- cu-|la sae- cu-|lo- rum, et|
 A4 G4 A8- | A4 c4 A4 A4- | A4 c8 =B4 | c8 (c8- | c4 B4 A4 G4 |[Q:1/4=197] A8)[Q:1/4=192] B8 | %115
w: * in sae\-|* cu- la sae\-|* cu- lo-|rum, A\-||* men,|
[Q:1/4=187] (B6[Q:1/4=185] A2[Q:1/4=183] G4[Q:1/4=180] F4 |[Q:1/4=174] c16) | %117
w: A\- * * *||
[Q:1/4=170] !fermata!A16 |] %118
w: men.|
V:2
 x14 || z8 z4 F4 | F4 F4 E4 D4 | F6 F2 F4 D4 | D4 E4 C4 D4 | C8 C8 | C8 A8 | G4 A4 B8 | %8
w: |A-|ni- ma me- a|Do- mi- num, a-|ni- ma me- a|Do- mi-|num: Et|ex- ul- ta-|
 G4 G6 G2 B4- | B4 A4 B4 G4 | G8 F8 | G6 G2 G4 F4- | F4 =E4 F4 F4 | F4 F4 (G4 A4) | B4 F4 G4 F4 | %15
w: vit spi- ri- tus|* me- us in|De- o|sa- lu- ta- ri|* me- o. Qui-|a re- spe\- *|xit hu- mi- li-|
 G8 F4 F4 | D4 C4 D8 | =E4 G8 C4 | F8 F4 F4 | D2 B,2 (B6 AG A4) | B8 F8- | F8 F8- | F8 F8 | %23
w: ta- tem an-|cil- lae su-|ae: ec- ce|e- nim ex|hoc be- a\- * * *|tam me|* di\-|* cent|
 F12 F4 | F8 F8 | G8 G8 | G16 | G16 || A12 A4 | B6 B2 F4 G4 | F8 D8 | z8 z4 G4 | F4 E4 D4 F4 | %33
w: o- mnes|ge- ne-|ra- ti-|o-|nes.|Qui- a|fe- cit mi- hi|ma- gna,|qui|po- tens est: et|
 F6 G2 C4 F4 | F8 F8 || F12 F4 | G6 G2 G4 A4 | B8 B8 | (B6 AG F8) | z4 D8 C4 | D6 D2 F8 | %41
w: san- ctum no- men|e- ius.|Et mi-|se- ri- cor- di-|a e-|ius * * *|a pro-|ge- ni- e|
 z4 D8 C4 | D6 D2 F4 A4 | A6 B2 A4 F4 | G4 E4 F6 F2 | F4 G4 C8 || F8 G4 G4 | G6 G2 C8 | z8 F8 | %49
w: in pro-|ge- ni- es, ti-|men- ti- bus e-|um, ti- men- ti-|bus e- um.|Fe- cit po-|ten- ti- am|in|
 B6 B2 B4 A4 | G8 z4 F4 | (G2 A2 B2 G2 A4) B2 A2 | G8 F4 F4- | F2 F2 F4 G8 | G8 G8 || =E8 F6 F2 | %56
w: bra- chi- o su-|o: di-|sper\- * * * * sit su-|per- bos men\-|* te cor- dis|su- i.|De- po- su-|
 F4 F4 G4 C4 | F8 G8 | F8 z8 | z4 F4 B6 A2 | G4 D4 E8 | C8 D8 || F8 G4 A4 | G8 A4 F4 | G4 G4 G8 | %65
w: it po- ten- tes|de se-|de,|et ex- al-|ta- vit hu-|mi- les.|E- su- ri-|en- tes im-|ple- vit bo-|
 G4 G4 G6 G2 | G4 A4 B8 | G8 A8 | (D6 E2 F8) | F8 z4 D4 | C4 B,2 F2 F4 F4 | G12 G4 | G8 F6 F2 | %73
w: nis: et di- vi-|tes di- mi-|sit i-|na\- * *|nes. Su-|sce- pit, su- sce- pit|Is- ra-|el pu- e-|
 F4 G8 A4 | B6 B2 B8 | G4 G4 _A6 A2 | _A4 G4 F8 | (E8 D8) | =E8 G8 | A8 A8 | B4 F4 G4 A4 | %81
w: rum su- um,|re- cor- da-|tus mi- se- ri-|cor- di- ae|su\- *|ae. Si-|cut, si-|cut lo- cu- tus|
 B4 F4 G4 F2 (F2- | F2 =ED E4) F8 | F12 F4 | F8 F8 | F6 F2 F4 D4- | D4 E8 C4 | %87
w: est ad pa- tres no\-|* * * * stros,|A- bra-|ham, et|se- mi- ni e\-|* ius in|
 (D2 E2 F2 D2 =E4 F4- | F4) =E4 !fermata!F16 ||[M:3/1] F12 F4 F8 | G16 F8 |[M:3/1] z24 | B8 B8 A8 | %93
w: sae\- * * * * *|* cu- la.|Glo- ri- a|Pa- tri,||et Fi- li-|
 B24 | z24 | E12 E4 E8 | D8 E8 C8 || D8 F8- | F4 G4 F8 | D4 G8 F4 | G6 G2 F8 | z4 G8 F4 | %102
w: o,||et Spi- ri-|tu- i san-|cto. Si\-|* cut e-|rat in prin-|ci- pi- o,|in prin-|
 G6 G2 F4 D4 | E4 (E6 DC D4) | (G8 F8) | G8 F8 | F4 F8 F4 | F4 G8 A4 | G8 A4 F4- | F4 =E4 F8- | %110
w: ci- pi- o, et|nunc, et * * *|sem\- *|per, et|in sae- cu-|la sae- cu-|lo- rum, et|* in sae\-|
 F4 G4 F4 F4- | F4 G4 G8 | G8 G8 | A8 z8 | (F12 E4 | D6 C2 D2 E2 F2 D2 | =E4 F8 E4) | %117
w: * cu- la sae\-|* cu- lo-|rum, A-|men,|A\- *|||
 !fermata!F16 |] %118
w: men.|
V:3
"^Magnificat""^Luca Marenzio\n(1556-99)" F2 G2 F2 B2 B2 B4 || z4 d4 d4 d4 | c4 d4 B4 B4 | %3
w: Ma\- * gni\- * fi- cat|A- ni- ma|me- a Do- mi-|
 c8 z4 B4 | B4 B4 A4 B4 | G12 G4 | F8 f8 | =e4 f4 f8 | e4 e6 e2 d4 | f8 f4 e4 | d8 d8 | %11
w: num, a-|ni- ma me- a|Do- mi-|num: Et|ex- ul- ta-|vit spi- ri- tus|me- us in|De- o|
 B6 B2 e4 c4 | c8 c4 c4 | c4 d4 e8 | f4 d4 d4 d4 | e8 c4 c4 | =B4 c8 B4 | c4 =e8 f4 | d8 c8 | %19
w: sa- lu- ta- ri|me- o. Qui-|a re- spe-|xit hu- mi- li-|ta- tem an-|cil- lae su-|ae: ec- ce|e- nim|
 z8 z4 c4 | d4 d4 c8 | d8 c8 | d8 c8 | d12 d4 | d8 d8 | e8 e8 | d16 | =e16 || f12 f4 | %29
w: ex|hoc be- a-|tam me|di- cent|o- mnes|ge- ne-|ra- ti-|o-|nes.|Qui- a|
 f6 f2 d4 e4 | c8 =B4 B4 | c4 d4 e8 | z8 z4 d4 | d6 d2 f4 d4 | c8 B8 || d12 d4 | d6 d2 d4 f4 | %37
w: fe- cit mi- hi|ma- gna, qui|po- tens est:|et|san- ctum no- men|e- ius.|Et mi-|se- ri- cor- di-|
 f8 g8 | f4 B8 A4 | B6 B2 F8 | z4 B8 A4 | B6 B2 F8 | z8 z4 f4 | f6 g2 f4 d4 | c4 c4 d6 c2 | %45
w: a e-|ius a pro-|ge- ni- e|in pro-|ge- ni- es|ti-|men- ti- bus e-|um, ti- men- ti-|
 d4 =e4 f8 || c8 e4 e4 | c6 e2 f4 c4 | d6 d2 d4 c4 | B8 z4 f4 | (d2 c2 d2 e2 c4) d4- | %51
w: bus e- um.|Fe- cit po-|ten- ti- am in|bra- chi- o su-|o: di-|sper\- * * * * sit|
 d2 c2 B4 f8 | z4 e4 c8 | (d6 c2 B4) e4 | d8 c8 || z4 c4 c6 c2 | c4 d2 (B4 AG A4) | B4 d4 e8 | %58
w: * su- per- bos|men- te|cor\- * * dis|su- i.|De- po- su-|it po- ten\- * * *|tes de se-|
 d4 d4 e6 d2 | c4 d8 (B4- | B2 c2 d2 B2 c2 B2 B4- | B4) A4 B8 || d8 d4 f4- | f4 =e4 f4 c4 | %64
w: de, et ex- al-|ta- vit hu\-||* mi- les.|E- su- ri\-|* en- tes im-|
 e4 e4 d8 | c4 =e4 e6 e2 | =e4 f4 f8 | (e6 d2 c4) f4 | (B2 c2 d2 B2 c8) | B4 d4 c4 B4 | %70
w: ple- vit bo-|nis: et di- vi-|tes di- mi-|sit * * i-|na\- * * * *|nes. Su- sce- pit,|
 z4 d4 c4 d4 | e12 e4 | d8 d6 d2 | d4 d8 f4 | f6 f2 f8 | e4 e4 e6 e2 | e4 e4 c4 (d4- | d4 c8 =B4) | %78
w: su- sce- pit|Is- ra-|el pu- e-|rum su- um,|re- cor- da-|tus mi- se- ri-|cor- di- ae su\-||
 c8 =e8 | f8 f8 | B4 d4 d4 f4 | f4 d4 e4 c4 | c8 c8 | d12 d4 | d8 c4 c4- | c2 c2 c4 d8 | B8 c8 | %87
w: ae. Si-|cut, si-|cut lo- cu- tus|est ad pa- tres|no- stros,|A- bra-|ham, et se\-|* mi- ni e-|ius in|
 (F8 c8) | c8 !fermata!c16 ||[M:3/1] d12 d4 d8 | e16 d8 |[M:3/1][K:treble-8] z24 | d8 d8 c8 | d24 | %94
w: sae\- *|cu- la.|Glo- ri- a|Pa- tri,||et Fi- li-|o,|
 z24 | c12 c4 c8 | B8 G8 A8 || B8 d8- | d4 e4 c8 | B16 | z4 e8 d4 | e6 e2 (B6 A2 | %102
w: |et Spi- ri-|tu- i san-|cto. Si\-|* cut e-|rat|in prin-|ci- pi- o, *|
 G2 A2 B2 c2 d4) B4 | E4 G4 B8 | B4 e8 d4 | e8 c8 | d4 d8 c4 | d4 d8 f4- | f4 =e4 f8 | %109
w: * * * * * et|nunc, et sem-|per, et sem-|per, et|in sae- cu-|la sae- cu\-|* lo- rum,|
 z4 c4 c4 c4- | c4 c4 c4 d4- | d4 e4 d8 | =e16 | z8 (f8- | f4 e4 d4 c4) | B4 (B8 A4 | G4 F4 G8) | %117
w: et in sae\-|* cu- la sae\-|* cu- lo-|rum,|A\-||men, A\- *||
 !fermata!F16 |] %118
w: men.|
V:4
 x14 || B,8 B,4 B,4 | A,4 B,4 G,4 G,4 | F,8 B,8 | G,4 E,4 F,4 B,,4 | C,8 C,8 | F,8 F,8 | %7
w: |A- ni- ma|me- a Do- mi-|num, a-|ni- ma me- a|Do- mi-|num: Et|
 C4 F,4 B,8 | E,4 E,6 E,2 G,4 | F,8 B,,4 E,4 | G,8 D,8 | E,6 E,2 E,4 F,4 | C,8 F,4 F,4 | %13
w: ex- ul- ta-|vit spi- ri- tus|me- us in|De- o|sa- lu- ta- ri|me- o. Qui-|
 F,4 D,4 C,8 | B,,4 B,4 G,4 B,4 | E,8 F,4 F,4 | G,4 _A,4 G,8 | C,4 C8 A,4 | B,8 F,8 | z8 F,8 | %20
w: a re- spe-|xit hu- mi- li-|ta- tem an-|cil- lae su-|ae: ec- ce|e- nim|ex|
 D,2 B,,2 (B,6 A,G, A,4) | B,8 F,8 | B,8 F,8 | B,,12 B,,4 | B,,8 B,,8 | E,8 C,8 | G,16 | C,16 || %28
w: hoc be- a\- * * *|tam me|di- cent|o- mnes|ge- ne-|ra- ti-|o-|nes.|
 F,12 F,4 | B,6 B,2 B,4 E,4 | F,8 G,4 G,4 | _A,4 F,4 E,8 | z8 z4 B,4 | B,6 G,2 A,4 B,4 | %34
w: Qui- a|fe- cit mi- hi|ma- gna, qui|po- tens est,|et|san- tum no- men|
 F,8 B,,8 || B,12 B,4 | G,6 G,2 G,4 F,4 | B,8 E,8 | B,8 z8 | z4 B,8 A,4 | B,6 B,2 F,8 | %41
w: e- ius.|Et mi-|se- ri- cor- di-|a e-|ius|a pro-|ge- ni- e|
 z4 B,8 A,4 | B,6 B,2 F,8 | z16 | z4 C4 B,6 C2 | B,4 G,4 F,8 || F,8 E,4 C,4 | G,6 G,2 F,4 F,4 | %48
w: in pro-|ge- ni- es,||ti- men- ti-|bus e- um.|Fe- cit po-|ten- ti- am in|
 B,6 B,2 B,4 A,4 | G,8 z4 F,4 | (G,2 A,2 B,2 G,2 A,4) B,2 A,2 | G,8 F,4 B,4 | E,8 F,8 | %53
w: bra- chi- o su-|o: di-|sper\- * * * * sit su-|per- bos men-|te cor-|
 D,8 (E,6 F,2 | G,8) C,8 || C8 F,6 F,2 | F,4 D,4 C,8 | B,,4 B,4 E,8 | B,4 B,4 C6 B,2 | %59
w: dis su\- *|* i.|De- po- su-|it po- ten-|tes de se-|de, et ex- al-|
 A,4 B,4 G,8- | G,8 (E,8 | F,8) B,,8 || B,8 G,4 F,4 | C8 F,4 F,4 | E,4 C,4 G,8 | C,4 C,4 C6 C2 | %66
w: ta- vit hu\-|* mi\-|* les.|E- su- ri-|en- tes im-|ple- vit bo-|nis: et di- vi-|
 C4 F,4 B,8 | E,8 F,8 | (G,8 F,8) | B,,4 B,4 F,4 B,,4 | z4 B,4 F,4 B,,4 | E,12 E,4 | G,8 D,6 D,2 | %73
w: tes di- mi-|sit i-|na\- *|nes. Su- sce- pit,|su- sce- pit|Is- ra-|el pu- e-|
 D,4 G,8 F,4 | B,6 B,2 B,8 | E,4 E,4 _A,6 A,2 | _A,4 E,4 F,8 | G,16 | C,8 C8 | F,16 | %80
w: rum su- um,|re- cor- da-|tus mi- se- ri-|cor- di- ae|su-|ae. Si-|cut|
 z4 B,4 G,4 F,4 | B,4 B,4 E,4 F,4 | C,8 F,8 | B,,12 B,,4 | B,,8 F,8 | F,6 F,2 F,4 G,4- | %86
w: lo- cu- tus|est ad pa- tres|no- stros,|A- bra-|ham, et|se- mi- ni e\-|
 G,4 E,8 F,4 | (D,8 C,8) | C,8 !fermata!F,16 ||[M:3/1] B,,12 B,,4 B,,8 | E,16 B,,8 | %91
w: * ius in|sae\- *|cu- la.|Glo- ri- a|Pa- tri,|
[M:3/1] B,8 B,8 A,8 | B,16 z8 | B,12 B,4 B,8 | C8 F,8 G,8 | C,24 | z24 || z8 B,8- | B,4 E,4 F,8 | %99
w: et Fi- li-|o,|et Spi- ri-|tu- i san-|cto.||Si\-|* cut e-|
 G,4 E,8 D,4 | E,6 E,2 B,8 | z4 E,8 D,4 | E,6 E,2 B,8 | z8 z4 B,,4 | E,4 G,4 B,8 | E,8 F,8 | %106
w: rat in prin-|ci- pi- o,|in prin-|ci- pi- o,|et|nunc, et sem-|per, et|
 B,4 B,8 A,4 | B,4 G,8 F,4 | C8 F,8 | C,8 F,4 F,4- | F,4 =E,4 F,4 D,4- | D,4 C,4 G,8 | C,16 | %113
w: in sae- cu-|la sae- cu-|lo- rum,|et in sae\-|* cu- la sae\-|* cu- lo-|rum,|
 (F,12 E,4 | D,4 C,4 B,,8- | B,,16 | C,16) | !fermata!F,16 |] %118
w: A\- *||||men.|

